X:1
T:Heruvimskaja pesn
T:Heruvimskaja pesn
T:Mihail Ivanovitsj Glinka
C:Mihail Ivanovitsj Glinka
%%score [ 1 2 ( 3 4 ) ( 5 6 ) ]
L:1/8
Q:1/4=66
M:4/4
K:C
V:1 treble nm="Soprano"
V:2 treble nm="Alto"
V:3 treble-8 nm="Tenor"
V:4 treble-8 
V:5 bass nm="Bass"
V:6 bass 
V:1
"^Adagio non tanto"!p! G8 | G8 | [Ac]6 B2 | A4 A4 | G6 G2 | F8 | E8 | z8 | z8 | z8 | %10
w: I-|zje|he- ru-|vi- mi,|he- ru-|vi-|mi||||
 z2!p!!<(! A4 G2!<)! | z2!p!!<(! c4 B2!<)! |!mf! (e2 _e2)!>(! (d2 c2)!>)! |!p!"^rit." c6 B2 | %14
w: tai- no,|tai- no|ob- * ra- *|zu- iu-|
!pp! B6 !fermata!z2 |!p!"^a tempo" G8 | G8 | [Ac]6 B2 | A8 | G8 | F8 | E8 | z8 | z8 | z8 | %25
w: sjte|i|Zji-|vo- tvo-|rja-|sjtei|Troi-|tse||||
 z2!p!!<(! A4 G2 | (^F2 c4) B2!<)! |!mf!!>(! e2 _e2 d2 c2!>)! |!p!"^rit." c6 B2 | %29
w: Tri- svja-|tu- * iu|pesn _ pri- pe-|va- iu-|
!pp! B6 !fermata!z2 ||"^a tempo"!p! G8 | G4 G4 | [Ac]6 B2 | A4 A4 | G8 | F8 | E8 | z8 | z8 | z8 | %40
w: sjte,|fsia-|ko- e|ni- *|ne zji-|tei-|sko-|e||||
 z2!p!!<(! A4 G2 | (^F2 c4 B2)!<)! |!mf! (e2 _e2)!>(! (d2 c2)!>)! |!p!!>(! c6 B2!>)! |!pp! B6 z2 || %45
w: ot- lo-|zjim _ _|po- * pe- *|tsje- ni-|e.|
 z4!p! B4 | !fermata!B8 ||[Q:1/4=160]"^Allegro moderato" z8 | z8 | z8 | z8 | z8 | z8 | z8 | %54
w: A-|min.||||||||
!f! c6 c2 | B4 A4 | B4 c2 d2 | e4 d4 | d8 | d8 | d8 | e8- | e4 e4 | d4 d4 | z8 | %65
w: Ja- ko|da Tsa-|rja vseh po-|di- mem,|da|Tsa-|rja|vseh|_ po-|di- mem,||
!pp! [_Bd]4 [Bd]2 [Bd]2 | [_Bd]4 [Bd]4 | [_Bd]6 [Bd]2 | [_Bd]4 [Bd]4 | [_Bc]4 [Bc]4 | %70
w: an- gel- ski-|mi ne-|vi- di-|mo do-|ri- no-|
 [_Bc]4 [Bc]4 | [_Bc]8 | [Ac]4!p! [Af]4 | [=Bf]4 [cf]4 | [df]4 [c^f]4 | [A^f]8 |!f! [Gg]4 z4 | z8 | %78
w: si- ma|tsjin-|mi, do-|ri- no-|si- ma|tsjin-|mi.||
 z8 | z8 | z8 | z8 |!f! c6 c2 | B4 A4 | G8- | G4 G4 | G8- |!>(! G8!>)! |!p! !fermata!G8 |] %89
w: ||||Al- li-|lu- ja,|al-|* li-|lu-||ja.|
V:2
!p! E6 E2 | E8- | E8- | E4 (F2 E2) | (D4 E4- | E4 D4) | E8 |!<(! C4 D4 | E4 C4 | C6 E2!<)! | E8 | %11
w: I- zje|he-||* ru- *|vi- *||mi|ta- no,|tai- no|ob- *|ra-|
 ^F8 |!mf! ^F8- |!p! F6 G2 |!pp! G6 !fermata!z2 |!p! E6 E2 | E4 E4 | E8- | E4 (F2 E2) | (D4 E4- | %20
w: zu-||* iu-|sjte|i Zji-|vo- tvo-|rja-|* sjtei _|Troi- *|
 E4 D4) | E8 |!p! C4 D4 | E4 C4 | (C6 E2) | E8 | ^F8 | ^F8- |!p! F6 G2 |!pp! G6 !fermata!z2 || %30
w: |tse|Tri- svja-|tu- iu|pesn _|pri-|pe-|va-|* iu-|sjte,|
!p! E4 E2 E2 | E8 | E8- | E4 F2 E2 | (D4 E4- | E4) D4 | E8 |!p! C4 D4 | (E4 C4) | C6 E2 |!<(! E8 | %41
w: fsia- ko- e|ni-|ne|_ zji- *|tei- *|* sko-|e|ot- lo-|zjim _|po- pe-|tsje-|
 ^F8!<)! |!mf! ^F4!>(! F2 F2!>)! |!p!!>(! ^F6 G2!>)! |!pp! G6 z2 || z4!p! G4 | !fermata!G8 || z8 | %48
w: ni-|e, po- pe-|tsje- ni-|e.|A-|min.||
 z8 | z8 |!f! G6 G2 | ^F4 E4 | ^F4 G2 A2 | B4 B4 | B4 A4 | G8 | G8 | G8 | (A2 B2 c2 d2) | %59
w: ||Ja- ko|da Tsa-|rja vseh po-|di- mem,|ja- ko|da|Tsa-|rja|vseh _ _ _|
 c4 (B2 A2) | G4 G4 | G8- | G4 G4 | G4 G4 | z8 |!pp! _B4 B2 B2 | _B4 A4 | G6 G2 | G4 [FG]4 | %69
w: _ po- *|di- mem,|vseh|_ po-|di- mem,||an- gel- ski-|mi ne-|vi- di-|mo do-|
 [EG]4 [EG]4 | [DG]4 [CG]4 | [FG]8 | [FA]4!p! A4 | G4 G4 | G4 A4 | A8 |!f! G4 z4 | z8 | z8 | z8 | %80
w: ri- no-|si- ma|tsjin-|mi, do-|ri- no-|si- ma|tsjin-|mi.||||
!f! G6 G2 | E4 D4 | E4 E2 F2 | G4 F4 | E8- | E4 E4 | D8- |!>(! D8!>)! |!p! !fermata![CE]8 |] %89
w: Al- li-|lu- ja,|al- li- *|lu- ja,|al-|* li-|lu-||ja.|
V:3
!p! c6 c2 |!p! c8- | c8- | c4 (d2 c2) | (B4 c4- | c4 B4) | c8 |!<(! c8 | B8- | B4 A2 A2!<)! | %10
w: I- zje|he-||* ru- *|vi- *||mi|tai-|no|_ ob- ra|
 A2 c2 c4 | (c4 d4) |!mf! (c4 d2) _e2 |!p! [A_e]6 [Bd]2 |!pp!!pp! [Bd]6 !fermata!z2 |!p! c6 c2 | %16
w: zu- * iu-|sjte _|ob- * ra-|zu- iu-|sjte|i Zji-|
!p! c4 c4 | c8- | c4 (d2 c2) | (B4 c4- | c4 B4) | c8 |!p! c4 c4 | B8- | B4 A4 | (A2 c6) | c4 B4 | %27
w: vo- tvo-|rja-|* sjtei _|Troi- *||tse|Tri- svja-|tu-|* iu|pesn _|pri- pe-|
 (c4 d2 _e2- |!p! e6) d2 |!pp! d6 !fermata!z2 ||!p! c4 c2 c2 |!p! c8 | c8- | c4 d2 c2 | (B4 c4- | %35
w: va- * *|* iu-|sjte,|fsia- ko- e|ni-|ne|_ zji- *|tei- *|
 c4) B4 | c8 |!p! c4 c4 | B8- | B4 A4 |!<(! (A2 c2) c4 | c4 d4!<)! |!mf! (c4!>(! d2) [A_e]2!>)! | %43
w: * sko-|e|ot- lo-|zjim|_ po-|pe- * tsje-|ni- e,|po- * pe-|
!p!!>(! [A_e]6 [Bd]2!>)! |!pp! [Bd]6 z2 || z4!p! [GB]4 | !fermata![GB]8 ||!f! c6 c2 | B4 A4 | %49
w: tsje- ni-|e.|A-|min.|Ja- ko|da Tsa-|
 B4 c2 d2 | e4 c4 | (d8- | d2 c2) (B2 A2) | (G2 A2) (B2 G2) | (A2 B2 c2 d2) | (e8- | %56
w: rja vseh po-|di- mem,|ja-|* * ko _|da _ Tsa- *|rja _ _ _|vseh|
 e2 f2) (e2 d2) | c4 B4 | A4 G4 | A4 (B2 c2) | d4 B4 | [ce]8- | [ce]4 [Gc]4 | [GB]4 [GB]4 | z8 | %65
w: _ _ po- *|di- mem,|ja- ko|da Tsa- *|rja _|vseh|_ po-|di- mem,||
 z8 | z8 | z8 | z8 | z8 | z8 | z8 | z4!p! [df]4 | [df]4 [ce]4 | [Bd]4 [c_e]4 | [c_e]8 | %76
w: |||||||do-|ri- no-|si- ma|tsjin-|
!f! [Bd]4 z4 | z8 |!f! c6 c2 | B4 A4 | B4 c2 d2 | c4 [Ac]4 | z4 c2 c2 | G4 c4 | c8- | c4 c4 | c8 | %87
w: mi.||Al- li-|lu- ja,|al- li- *|lu- ja,|al- li-|lu- ja,|al-|* li-|lu-|
!>(! B8!>)! |!p! !fermata!c8 |] %89
w: |ja.|
V:4
 z8 | c4 B4 | A6 A2 | A4 A4 | B4 (c2 G2) | (A4 G4) | G8 | G4 A4 | G4 E4- | E4 E2 G2 | ^F4 G4 | %11
w: |I- zje|he- ru-|vi- mi,|he- ru- *|vi- *|mi|tai- no,|tai- no|_ ob- ra-|zu- iu-|
 (A4 B4) | A6 A2 | x8 | x8 | z8 | c4 B4 | A6 A2 | (A8 | B4) (c2 G2) | (A4 G4) | G8 | G4 A4 | %23
w: sjte _|_ _||||i Zji-|vo- tvo-|rja-|* sjtei _|Troi- *|tse|Tri- svja|
 G4 E4- | E4 (E2 G2) | ^F4 G4 | A4 B4 | A4 A2 A2 | A6 B2 | B6 x2 || z8 | c4 B2 B2 | A8 | A4 A4 | %34
w: tu- iu|_ pesn, _|Tri- svja-|tu- iu|pesn pri- pe|va- iu-|sjte,||fsia- ko- e|ni-|ne zji-|
 (B4 c2 G2 | A4) G4 | G8 | G4 A4 | (G4 E4) | E4 (E2 G2) | (^F4 G4) | A4 B4 | A6 x2 | x8 | x8 || %45
w: tei- * *|* sko-|e|ot- lo-|zjim _|po- pe- *|tsje- *|ni- e,||||
 x8 | x8 || x8 | x8 | x8 | x8 | x8 | x8 | x8 | x8 | x8 | x8 | x8 | x8 | x8 | x8 | x8 | x8 | x8 | %64
w: |||||||||||||||||||
 x8 | x8 | x8 | x8 | x8 | x8 | x8 | x8 | x8 | x8 | x8 | x8 | x8 | x8 | x8 | x8 | B4 G4 | x8 | %82
w: ||||||||||||||||||
 A4 c4 | e4 c4 | x8 | x8 | x8 | x8 | x8 |] %89
w: al- li-|lu- ja,||||||
V:5
 z8 | z8 |!p! A,4 G,4 |!p! F,8- | F,4 E,4 | D,8 | C,8 | z8 | z8 | C,8 | D,8 | D,8 |!mf! D,8 | %13
w: ||I- zje|he-|* ru-|vi-|mi|||tai-|no|ob-|ra-|
!p! G,6 G,2 |!pp! G,6 !fermata!z2 | z8 | z8 |!p! A,4 G,4 |!p! F,4 F,4 | F,4 E,4 | D,8 | C,8 | %22
w: zu- iu-|sjte|||i Zji-|vo- tvo-|rja- sjtei|Troi-|tse|
!p! z8 | z8 | C,4 C,4 | D,8 | D,8 | D,4 D,2 D,2 |!p! G,6 G,2 |!pp! G,6 !fermata!z2 || z8 | z8 | %32
w: ||Tri- svja-|tu-|iu|pesn pri- pe-|va- iu-|sjte,|||
!p! A,4 G,2 G,2 |!p! F,8 | F,4 E,4 | D,4 D,4 | C,8 |!p! z8 | z8 |!p! C,4 C,4 |!<(! D,8 | D,8!<)! | %42
w: fsia- ko- e|ni-|ne zji-|tei- sko-|e|||ot- lo-|zjom|po-|
!mf! D,8 |!p!!>(! G,6 G,2!>)! |!pp! G,6 z2 || z4!p! [D,G,]4 | !fermata![D,G,]8 || z8 | z8 | z8 | %50
w: pe-|tsje- ni-|e.||||||
 z8 | z8 | z8 | z8 | z8 | z8 | z8 |!f! G,6 G,2 | ^F,4 E,4 | ^F,4 G,2 A,2 | B,4 G,4 | [C,C]8- | %62
w: |||||||Ja- ko|da Tsa-|rja vseh po-|di- mem,|vseh|
 [C,C]4 C,4 | [G,,G,]4 G,,4 | z8 | z8 | z8 | z8 | z8 | z8 | z8 | z8 | z8 | z8 | z8 | z8 | %76
w: _ po-|di- mem,|||||||||||||
!f! [G,,G,]6 [G,,G,]2 | E,4 D,4 | E,4 [C,E,]2 [A,,F,]2 | [G,,G,]4 [G,,G,]4 | [G,,G,]4 [G,,G,]4 | %81
w: Al- li-|lu- ja,|al- li- *|lu- ja,|al- li-|
 [A,,A,]4 [A,,A,]4 | [A,,A,]4 [A,,A,]4 | E,4 F,4 | G,8 | [G,,G,]8 | [G,,G,]8- |!>(! [G,,G,]8!>)! | %88
w: lu- ja,|al- li-|lu- ja,|al-|li-|lu-||
!p! !fermata![C,G,]8 |] %89
w: ja.|
V:6
 x8 | x8 | z8 | F,,4 F,,4 | F,,4 E,,4 | (D,,4 G,,4) | C,,8 | E,,4 F,,4 | G,,4 A,,4 | C,,8 | D,,8 | %11
w: |||I- zje|he- ru-|vi- *|mi|tai- no|tai- no|ob-|ra-|
 D,,8 | D,,8 | G,,8- | G,,6 x2 | x8 | x8 | z8 | F,,4 F,,4 | F,,4 E,,4 | D,,3 D,, G,,4 | C,,8 | %22
w: zu-|iu-|sjte|_||||i Zji-|vo- tvo-|rja- sjtei Troi-|tse|
 E,,4 F,,4 | G,,4 A,,4 | C,,8 | D,,8 | D,,8 | D,,6 D,,2 | G,,8- | G,,6 x2 || x8 | x8 | z8 | %33
w: Tri- svja-|tu- iu|pesn|pri-|pe-|va- iu-|sjte,|_||||
 F,,4 F,,2 F,,2 | F,,4 E,,2 E,,2 | D,,4 G,,4 | C,,8 | E,,4 F,,4 | (G,,4 A,,4) | C,,8 | D,,8 | %41
w: fsia- ko- e|ni- ne zji-|tei- sko-|e|ot- lo-|zjim _|po-||
 D,,8- | D,,8 | G,,6 G,,2 | G,,6 x2 || x4 G,,4 | !fermata!G,,8 || x8 | x8 | x8 | x8 | x8 | x8 | %53
w: pe-||tsje- ni-|e.|A-|min.|||||||
 x8 | x8 | x8 | x8 | x8 | x8 | x8 | x8 | x8 | x8 | x8 | x8 | x8 | x8 | x8 | x8 | x8 | x8 | x8 | %72
w: |||||||||||||||||||
 x8 | x8 | x8 | x8 | x8 | x8 | x8 | x8 | x8 | x8 | x8 | x8 | x8 | x8 | x8 | x8 | x8 |] %89
w: |||||||||||||||||

